X:56
T:B056-  The carman's whistle
Q:1/4=120
L:1/4
M:6/4
K:C
C2CB,2G,|A,2A,G,3|A,3G,C2|A,B,2C3|c2cB2G|A2AG3|c2cB2G|\
A3/2G/2AG3|FA2EG2|DF2E2C|FA2EG2|F3/2E/2DC3|\
FA2EG2|DF2E2C|FA2EG2|F/2E/2D/2C/2 DC3|]

